; generated by PrusaSlicer 2.4.1+win64 on 2022-04-13 at 14:59:31 UTC

; 

; external perimeters extrusion width = 0.45mm
; perimeters extrusion width = 0.45mm
; infill extrusion width = 0.45mm
; solid infill extrusion width = 0.45mm
; top infill extrusion width = 0.40mm
; first layer extrusion width = 0.42mm

M73 P0 R51
M73 Q0 S51
M201 X1000 Y1000 Z200 E5000 ; sets maximum accelerations, mm/sec^2
M203 X200 Y200 Z12 E120 ; sets maximum feedrates, mm / sec
M204 P1250 R1250 T1250 ; sets acceleration (P, T) and retract acceleration (R), mm/sec^2
M205 X8.00 Y8.00 Z0.40 E4.50 ; sets the jerk limits, mm/sec
M205 S0 T0 ; sets the minimum extruding and travel feed rate, mm/sec
M107
;TYPE:Custom
M862.3 P "MK3S" ; printer model check
M862.1 P0.4 ; nozzle diameter check
M115 U3.10.1 ; tell printer latest fw version
G90 ; use absolute coordinates
M83 ; extruder relative mode
M104 S215 ; set extruder temp
M140 S60 ; set bed temp
M190 S60 ; wait for bed temp
M109 S215 ; wait for extruder temp
G28 W ; home all without mesh bed level
G80 ; mesh bed leveling
G1 Z0.2 F720
G1 Y-3 F1000 ; go outside print area
G92 E0
G1 X60 E9 F1000 ; intro line
G1 X100 E12.5 F1000 ; intro line
G92 E0
M221 S95

; Don't change E values below. Excessive value can damage the printer.
M907 E430 ; set extruder motor current
G21 ; set units to millimeters
G90 ; use absolute coordinates
M83 ; use relative distances for extrusion
M900 K0.05 ; Filament gcode LA 1.5
M900 K30 ; Filament gcode LA 1.0
M107
;LAYER_CHANGE
;Z:0.2
;HEIGHT:0.2
;BEFORE_LAYER_CHANGE
G92 E0.0
;0.2


G1 E-.8 F2100
G1 Z.4 F720
;AFTER_LAYER_CHANGE
;0.2
G1 X95.515 Y70.693 F10800
G1 Z.2 F720
G1 E.8 F2100
M204 S800
;TYPE:Skirt/Brim
;WIDTH:0.42
G1 F1200
G1 X96.56 Y69.817 E.04278
G1 X97.5 Y69.623 E.03008
G1 X152.5 Y69.623 E1.72449
G1 X153.807 Y70.015 E.04278
M73 P0 R50
G1 X154.683 Y71.06 E.04278
G1 X154.877 Y72 E.03008
G1 X154.877 Y138 E2.06938
G1 X154.485 Y139.307 E.04278
G1 X153.44 Y140.183 E.04278
G1 X152.5 Y140.377 E.03008
G1 X97.5 Y140.377 E1.72449
G1 X96.193 Y139.985 E.04278
G1 X95.317 Y138.94 E.04278
G1 X95.123 Y138 E.03008
G1 X95.123 Y72 E2.06938
G1 X95.497 Y70.75 E.0409
M204 S1000
; printing object Module_demarrage_Part2.STL id:0 copy 0
;WIPE_START
G1 F8640
G1 X96.56 Y69.817 E-.32671
G1 X97.5 Y69.623 E-.22155
G1 X98.417 Y69.623 E-.21174
;WIPE_END
G1 E-.04 F2100
G1 Z.6 F720
G1 X97.909 Y72.41 F10800
G1 Z.2 F720
G1 E.8 F2100
M204 S800
;TYPE:External perimeter
G1 F1200
G1 X152.09 Y72.41 E1.6988
G1 X152.095 Y73.507 E.03439
G1 X152.186 Y74.999 E.04686
G1 X152.114 Y75.99 E.03116
G1 X152.09 Y76.998 E.0316
G1 X152.09 Y133.003 E1.756
G1 X152.115 Y134.01 E.0316
G1 X152.186 Y135.001 E.03115
G1 X152.094 Y136.493 E.04688
G1 X152.091 Y137.59 E.03439
G1 X97.909 Y137.59 E1.69881
G1 X97.906 Y136.493 E.03439
G1 X97.814 Y135.001 E.04688
G1 X97.885 Y134.01 E.03115
G1 X97.91 Y133.003 E.0316
G1 X97.91 Y76.998 E1.756
G1 X97.886 Y75.99 E.0316
M73 P1 R50
M73 Q1 S51
G1 X97.814 Y74.999 E.03116
G1 X97.905 Y73.507 E.04687
G1 X97.909 Y72.47 E.03251
M204 S1000
G1 X98.253 Y72.614 F10800
;WIPE_START
G1 F8640
G1 X101.2 Y72.466 E-.76
;WIPE_END
G1 E-.04 F2100
G1 Z.6 F720
G1 X150.556 Y72.787 F10800
G1 Z.2 F720
G1 E.8 F2100
M204 S800
;TYPE:Perimeter
G1 F1200
G1 X151.714 Y72.787 E.03632
G1 X151.717 Y73.502 E.0224
G1 X151.445 Y73.226 E.01216
G1 X151.119 Y73.003 E.01238
G1 X150.764 Y72.841 E.01223
G1 X150.614 Y72.802 E.00485
M204 S1000
G1 X150.322 Y73.116 F10800
M204 S800
;TYPE:External perimeter
G1 F1200
G1 X150.637 Y73.198 E.01022
G1 X150.933 Y73.332 E.01018
G1 X151.202 Y73.517 E.01023
G1 X151.432 Y73.749 E.01026
G1 X151.616 Y74.021 E.01029
G1 X151.737 Y74.326 E.01028
G1 X151.791 Y74.634 E.00979
G1 X151.811 Y74.927 E.00923
G1 X151.805 Y75.219 E.00914
G1 X151.77 Y75.518 E.00946
G1 X151.692 Y75.805 E.00932
G1 X151.531 Y76.118 E.01102
G1 X151.322 Y76.372 E.01031
G1 X151.071 Y76.581 E.01025
G1 X150.788 Y76.741 E.0102
G1 X150.477 Y76.851 E.01032
G1 X150 Y76.912 E.01509
G1 X149.523 Y76.851 E.01509
G1 X149.213 Y76.742 E.01031
G1 X148.93 Y76.584 E.01017
G1 X148.677 Y76.38 E.01017
G1 X148.463 Y76.137 E.01017
G1 X148.293 Y75.861 E.01017
G1 X148.172 Y75.56 E.01017
G1 X148.104 Y75.243 E.01017
G1 X148.09 Y74.919 E.01017
G1 X148.131 Y74.597 E.01017
G1 X148.226 Y74.287 E.01017
G1 X148.372 Y73.998 E.01017
G1 X148.565 Y73.737 E.01017
G1 X148.799 Y73.513 E.01017
G1 X149.068 Y73.331 E.01017
G1 X149.363 Y73.198 E.01017
M73 Q1 S50
G1 X149.677 Y73.116 E.01017
G1 X149.973 Y73.091 E.00932
G1 X150.262 Y73.111 E.00907
M204 S1000
G1 X150.53 Y72.865 F10800
;WIPE_START
G1 F8640
G1 X150.637 Y73.198 E-.08892
G1 X150.933 Y73.332 E-.07498
G1 X151.202 Y73.517 E-.07536
G1 X151.432 Y73.749 E-.07553
G1 X151.616 Y74.021 E-.07582
G1 X151.737 Y74.326 E-.07569
G1 X151.791 Y74.634 E-.07209
G1 X151.811 Y74.927 E-.06797
G1 X151.805 Y75.219 E-.06733
G1 X151.77 Y75.518 E-.06967
G1 X151.751 Y75.588 E-.01665
;WIPE_END
G1 E-.04 F2100
G1 Z.6 F720
G1 X147.714 Y134.935 F10800
G1 Z.2 F720
G1 E.8 F2100
M204 S800
;TYPE:Perimeter
G1 F1200
G1 X147.729 Y135.291 E.01117
G1 X147.81 Y135.671 E.01218
G1 X147.955 Y136.031 E.01218
G1 X148.159 Y136.362 E.01218
G1 X148.416 Y136.653 E.01218
G1 X148.718 Y136.897 E.01218
G1 X149.057 Y137.087 E.01218
G1 X149.414 Y137.213 E.01188
G1 X100.586 Y137.213 E1.53098
G1 X100.943 Y137.087 E.01188
G1 X101.282 Y136.897 E.01218
G1 X101.584 Y136.653 E.01218
G1 X101.841 Y136.362 E.01218
G1 X102.045 Y136.031 E.01218
G1 X102.19 Y135.671 E.01218
G1 X102.271 Y135.291 E.01218
G1 X102.288 Y134.899 E.01231
G1 X102.23 Y134.489 E.01297
G1 X102.125 Y134.146 E.01125
G1 X101.95 Y133.799 E.01218
G1 X101.719 Y133.487 E.01218
G1 X101.439 Y133.218 E.01218
G1 X101.117 Y133.001 E.01218
G1 X100.763 Y132.841 E.01218
G1 X100.383 Y132.742 E.01231
G1 X99.971 Y132.713 E.01297
G1 X99.613 Y132.743 E.01125
G1 X99.236 Y132.841 E.0122
G1 X98.881 Y133.003 E.01223
G1 X98.555 Y133.226 E.01238
G1 X98.274 Y133.51 E.01254
G1 X98.287 Y133.007 E.01578
G1 X98.275 Y76.475 E1.77253
G1 X98.409 Y76.639 E.00663
G1 X98.714 Y76.893 E.01245
G1 X99.055 Y77.086 E.0123
G1 X99.435 Y77.22 E.01262
G1 X100 Y77.292 E.01786
G1 X100.565 Y77.22 E.01785
G1 X100.943 Y77.087 E.01258
G1 X101.282 Y76.897 E.01218
G1 X101.584 Y76.653 E.01218
G1 X101.841 Y76.362 E.01218
G1 X102.045 Y76.031 E.01218
G1 X102.19 Y75.671 E.01218
G1 X102.271 Y75.291 E.01218
G1 X102.288 Y74.899 E.01231
G1 X102.23 Y74.489 E.01297
G1 X102.125 Y74.146 E.01125
G1 X101.95 Y73.799 E.01218
G1 X101.719 Y73.487 E.01218
G1 X101.439 Y73.218 E.01218
G1 X101.117 Y73.001 E.01218
G1 X100.763 Y72.841 E.01218
G1 X100.556 Y72.787 E.0067
G1 X149.444 Y72.787 E1.53283
G1 X149.237 Y72.841 E.0067
G1 X148.883 Y73.001 E.01218
G1 X148.561 Y73.218 E.01218
G1 X148.281 Y73.487 E.01218
G1 X148.05 Y73.799 E.01218
G1 X147.875 Y74.146 E.01218
G1 X147.761 Y74.518 E.01218
G1 X147.712 Y74.903 E.01218
G1 X147.729 Y75.291 E.01218
G1 X147.81 Y75.671 E.01218
G1 X147.955 Y76.031 E.01218
G1 X148.159 Y76.362 E.01218
G1 X148.416 Y76.653 E.01218
G1 X148.718 Y76.897 E.01218
G1 X149.057 Y77.087 E.01218
G1 X149.435 Y77.22 E.01258
G1 X150 Y77.292 E.01785
G1 X150.565 Y77.22 E.01786
G1 X150.945 Y77.086 E.01262
G1 X151.286 Y76.893 E.0123
G1 X151.591 Y76.639 E.01245
G1 X151.725 Y76.475 E.00663
G1 X151.713 Y133.007 E1.77253
G1 X151.726 Y133.51 E.01578
G1 X151.445 Y133.226 E.01254
G1 X151.119 Y133.003 E.01238
G1 X150.764 Y132.841 E.01223
G1 X150.383 Y132.742 E.01233
G1 X149.971 Y132.713 E.01297
G1 X149.613 Y132.743 E.01125
G1 X149.237 Y132.841 E.01218
G1 X148.883 Y133.001 E.01218
G1 X148.561 Y133.218 E.01218
G1 X148.281 Y133.487 E.01218
G1 X148.05 Y133.799 E.01218
G1 X147.875 Y134.146 E.01218
G1 X147.761 Y134.518 E.01218
G1 X147.716 Y134.875 E.0113
M204 S1000
;WIPE_START
G1 F8640
G1 X147.729 Y135.291 E-.09604
G1 X147.81 Y135.671 E-.08968
G1 X147.955 Y136.031 E-.08969
G1 X148.159 Y136.362 E-.08968
G1 X148.416 Y136.653 E-.08968
G1 X148.718 Y136.897 E-.08968
G1 X149.057 Y137.087 E-.08968
G1 X149.414 Y137.213 E-.08752
G1 X149.248 Y137.213 E-.03834
;WIPE_END
G1 E-.04 F2100
G1 Z.6 F720
G1 X140.851 Y93.367 F10800
G1 Z.2 F720
G1 E.8 F2100
M204 S800
;TYPE:External perimeter
G1 F1200
G1 X140.5 Y93.412 E.0111
G1 X140.149 Y93.367 E.0111
G1 X139.919 Y93.286 E.00765
G1 X139.71 Y93.169 E.00751
G1 X139.523 Y93.019 E.00751
G1 X139.365 Y92.839 E.00751
G1 X139.24 Y92.635 E.00751
G1 X139.15 Y92.413 E.00751
G1 X139.1 Y92.179 E.00751
G1 X139.09 Y91.94 E.00751
G1 X139.12 Y91.703 E.00751
G1 X139.19 Y91.474 E.00751
G1 X139.298 Y91.26 E.00751
G1 X139.44 Y91.067 E.00751
G1 X139.613 Y90.902 E.00751
G1 X139.812 Y90.768 E.00751
G1 X140.03 Y90.669 E.00751
G1 X140.261 Y90.609 E.00751
G1 X140.476 Y90.591 E.00674
G1 X140.737 Y90.608 E.00821
G1 X140.97 Y90.669 E.00756
G1 X141.188 Y90.768 E.00751
G1 X141.387 Y90.902 E.00751
G1 X141.56 Y91.067 E.00751
G1 X141.702 Y91.26 E.00751
G1 X141.81 Y91.474 E.00751
G1 X141.88 Y91.703 E.00751
G1 X141.91 Y91.94 E.00751
G1 X141.9 Y92.179 E.00751
G1 X141.85 Y92.413 E.00751
G1 X141.769 Y92.613 E.00674
G1 X141.636 Y92.838 E.00821
G1 X141.477 Y93.019 E.00756
G1 X141.29 Y93.169 E.00751
G1 X141.081 Y93.286 E.00751
G1 X140.908 Y93.348 E.00577
M204 S1000
G1 X140.747 Y93.706 F10800
G1 X140.977 Y93.723
M204 S800
;TYPE:Perimeter
G1 F1200
G1 X140.5 Y93.792 E.01511
G1 X140.061 Y93.737 E.01386
G1 X139.763 Y93.631 E.00993
G1 X139.498 Y93.483 E.00952
G1 X139.261 Y93.292 E.00952
G1 X139.061 Y93.064 E.00952
G1 X138.902 Y92.806 E.00952
G1 X138.789 Y92.524 E.00952
G1 X138.725 Y92.227 E.00952
G1 X138.712 Y91.924 E.00952
G1 X138.75 Y91.623 E.00952
G1 X138.839 Y91.333 E.00952
G1 X138.976 Y91.062 E.00952
G1 X139.156 Y90.817 E.00952
G1 X139.376 Y90.607 E.00952
G1 X139.627 Y90.437 E.00952
G1 X139.904 Y90.312 E.00952
G1 X140.198 Y90.236 E.00952
G1 X140.472 Y90.212 E.00865
G1 X140.798 Y90.235 E.01022
G1 X141.096 Y90.312 E.00968
G1 X141.373 Y90.437 E.00952
G1 X141.624 Y90.607 E.00952
G1 X141.844 Y90.817 E.00952
G1 X142.024 Y91.062 E.00952
G1 X142.161 Y91.333 E.00952
G1 X142.25 Y91.623 E.00952
G1 X142.288 Y91.924 E.00952
G1 X142.275 Y92.227 E.00952
G1 X142.211 Y92.524 E.00952
G1 X142.109 Y92.78 E.00865
G1 X141.942 Y93.061 E.01022
G1 X141.739 Y93.292 E.00968
G1 X141.502 Y93.483 E.00952
G1 X141.237 Y93.631 E.00952
G1 X141.033 Y93.703 E.00678
M204 S1000
;WIPE_START
G1 F8640
G1 X140.5 Y93.792 E-.12486
G1 X140.061 Y93.737 E-.1021
G1 X139.763 Y93.631 E-.07312
G1 X139.498 Y93.483 E-.0701
G1 X139.261 Y93.292 E-.0701
G1 X139.061 Y93.064 E-.0701
G1 X138.902 Y92.806 E-.0701
G1 X138.789 Y92.524 E-.0701
G1 X138.725 Y92.227 E-.0701
G1 X138.717 Y92.057 E-.03932
;WIPE_END
G1 E-.04 F2100
G1 Z.6 F720
G1 X140.564 Y100.597 F10800
G1 Z.2 F720
G1 E.8 F2100
M204 S800
;TYPE:External perimeter
G1 F1200
G1 X140.737 Y100.608 E.00543
G1 X140.97 Y100.669 E.00756
G1 X141.188 Y100.768 E.00751
G1 X141.387 Y100.902 E.00751
G1 X141.56 Y101.067 E.00751
G1 X141.702 Y101.26 E.00751
G1 X141.799 Y101.452 E.00674
G1 X141.88 Y101.701 E.00821
G1 X141.91 Y101.94 E.00756
G1 X141.9 Y102.179 E.00751
G1 X141.85 Y102.413 E.00751
G1 X141.769 Y102.613 E.00674
G1 X141.636 Y102.838 E.00821
G1 X141.477 Y103.019 E.00756
G1 X141.29 Y103.169 E.00751
G1 X141.081 Y103.286 E.00751
G1 X140.851 Y103.367 E.00765
G1 X140.5 Y103.412 E.0111
G1 X140.149 Y103.367 E.0111
G1 X139.919 Y103.286 E.00765
G1 X139.71 Y103.169 E.00751
G1 X139.523 Y103.019 E.00751
G1 X139.365 Y102.839 E.00751
G1 X139.24 Y102.635 E.00751
G1 X139.15 Y102.413 E.00751
G1 X139.1 Y102.179 E.00751
G1 X139.09 Y101.94 E.00751
G1 X139.12 Y101.703 E.00751
G1 X139.19 Y101.474 E.00751
G1 X139.298 Y101.26 E.00751
G1 X139.44 Y101.067 E.00751
G1 X139.613 Y100.902 E.00751
G1 X139.812 Y100.768 E.00751
G1 X140.03 Y100.669 E.00751
G1 X140.261 Y100.609 E.00751
G1 X140.504 Y100.593 E.00763
M204 S1000
G1 X140.651 Y100.447 F10800
G1 X140.798 Y100.235
M204 S800
;TYPE:Perimeter
G1 F1200
G1 X141.096 Y100.312 E.00968
G1 X141.373 Y100.437 E.00952
G1 X141.624 Y100.607 E.00952
G1 X141.844 Y100.817 E.00952
G1 X142.024 Y101.062 E.00952
G1 X142.148 Y101.308 E.00865
G1 X142.249 Y101.618 E.01022
G1 X142.288 Y101.924 E.00968
G1 X142.275 Y102.227 E.00952
G1 X142.211 Y102.524 E.00952
G1 X142.109 Y102.78 E.00865
G1 X141.942 Y103.061 E.01022
G1 X141.739 Y103.292 E.00968
G1 X141.502 Y103.483 E.00952
G1 X141.237 Y103.631 E.00952
G1 X140.939 Y103.737 E.00993
G1 X140.5 Y103.792 E.01386
G1 X140.061 Y103.737 E.01386
G1 X139.763 Y103.631 E.00993
G1 X139.498 Y103.483 E.00952
G1 X139.261 Y103.292 E.00952
G1 X139.061 Y103.064 E.00952
G1 X138.902 Y102.806 E.00952
G1 X138.789 Y102.524 E.00952
G1 X138.725 Y102.227 E.00952
G1 X138.712 Y101.924 E.00952
G1 X138.75 Y101.623 E.00952
G1 X138.839 Y101.333 E.00952
G1 X138.976 Y101.062 E.00952
G1 X139.156 Y100.817 E.00952
G1 X139.376 Y100.607 E.00952
G1 X139.627 Y100.437 E.00952
G1 X139.904 Y100.312 E.00952
G1 X140.198 Y100.236 E.00952
G1 X140.472 Y100.212 E.00865
G1 X140.738 Y100.23 E.00834
M204 S1000
;WIPE_START
G1 F8640
G1 X141.096 Y100.312 E-.08491
G1 X141.373 Y100.437 E-.0701
G1 X141.624 Y100.607 E-.0701
G1 X141.844 Y100.817 E-.0701
G1 X142.024 Y101.062 E-.0701
G1 X142.148 Y101.308 E-.06371
G1 X142.249 Y101.618 E-.07527
G1 X142.288 Y101.924 E-.07126
G1 X142.275 Y102.227 E-.0701
G1 X142.211 Y102.524 E-.0701
G1 X142.14 Y102.702 E-.04425
;WIPE_END
G1 E-.04 F2100
G1 Z.6 F720
G1 X101.556 Y76.105 F10800
G1 Z.2 F720
G1 E.8 F2100
M204 S800
;TYPE:External perimeter
G1 F1200
G1 X101.323 Y76.38 E.01131
G1 X101.07 Y76.584 E.01017
G1 X100.787 Y76.742 E.01017
G1 X100.477 Y76.851 E.01031
G1 X100 Y76.912 E.01509
G1 X99.523 Y76.851 E.01509
G1 X99.212 Y76.741 E.01032
G1 X98.929 Y76.581 E.0102
G1 X98.678 Y76.372 E.01025
G1 X98.47 Y76.118 E.01027
G1 X98.316 Y75.828 E.0103
G1 X98.23 Y75.519 E.01007
G1 X98.195 Y75.219 E.00948
G1 X98.189 Y74.927 E.00914
G1 X98.209 Y74.634 E.00923
G1 X98.263 Y74.326 E.00979
G1 X98.384 Y74.021 E.01028
G1 X98.568 Y73.749 E.01029
G1 X98.798 Y73.517 E.01026
G1 X99.067 Y73.332 E.01023
G1 X99.363 Y73.198 E.01018
G1 X99.677 Y73.116 E.01017
G1 X99.973 Y73.091 E.00932
G1 X100.322 Y73.116 E.01096
G1 X100.637 Y73.198 E.01021
G1 X100.932 Y73.331 E.01017
G1 X101.201 Y73.513 E.01017
G1 X101.435 Y73.737 E.01017
G1 X101.628 Y73.998 E.01017
G1 X101.774 Y74.287 E.01017
G1 X101.861 Y74.572 E.00932
G1 X101.91 Y74.917 E.01095
G1 X101.896 Y75.243 E.01021
G1 X101.828 Y75.56 E.01017
G1 X101.707 Y75.861 E.01017
G1 X101.588 Y76.054 E.00713
M204 S1000
G1 X101.704 Y76.434 F10800
;WIPE_START
G1 F8640
G1 X101.323 Y76.38 E-.09697
G1 X101.07 Y76.584 E-.07486
G1 X100.787 Y76.742 E-.07486
G1 X100.477 Y76.851 E-.07593
G1 X100 Y76.912 E-.11109
G1 X99.523 Y76.851 E-.11112
G1 X99.212 Y76.741 E-.07603
G1 X98.929 Y76.581 E-.07514
G1 X98.716 Y76.404 E-.06399
;WIPE_END
G1 E-.04 F2100
G1 Z.6 F720
G1 X98.285 Y72.787 F10800
G1 Z.2 F720
G1 E.8 F2100
M204 S800
;TYPE:Perimeter
G1 F1200
G1 X99.444 Y72.787 E.03634
G1 X99.236 Y72.841 E.00673
G1 X98.881 Y73.003 E.01223
G1 X98.555 Y73.226 E.01238
G1 X98.283 Y73.502 E.01216
G1 X98.285 Y72.847 E.02052
M204 S1000
;WIPE_START
G1 F8640
G1 X99.444 Y72.787 E-.26802
G1 X99.236 Y72.841 E-.04957
G1 X98.881 Y73.003 E-.09007
G1 X98.555 Y73.226 E-.09119
G1 X98.283 Y73.502 E-.08953
G1 X98.285 Y72.847 E-.15111
;WIPE_END
G1 E-.06052 F2100
G1 Z.6 F720
G1 X98.283 Y136.485 F10800
G1 Z.2 F720
G1 E.8 F2100
M204 S800
G1 F1200
G1 X98.409 Y136.639 E.00621
G1 X98.714 Y136.893 E.01245
G1 X99.055 Y137.086 E.0123
G1 X99.414 Y137.213 E.01194
G1 X98.285 Y137.213 E.03539
G1 X98.283 Y136.545 E.02093
M204 S1000
G1 X98.678 Y136.372 F10800
M204 S800
;TYPE:External perimeter
G1 F1200
G1 X98.47 Y136.118 E.01027
G1 X98.316 Y135.828 E.0103
G1 X98.23 Y135.519 E.01007
G1 X98.195 Y135.219 E.00948
G1 X98.189 Y134.927 E.00914
G1 X98.209 Y134.634 E.00923
G1 X98.263 Y134.326 E.00979
G1 X98.384 Y134.021 E.01028
G1 X98.568 Y133.749 E.01029
G1 X98.798 Y133.517 E.01026
G1 X99.067 Y133.332 E.01023
G1 X99.363 Y133.198 E.01018
G1 X99.677 Y133.116 E.01017
G1 X99.973 Y133.091 E.00932
G1 X100.322 Y133.116 E.01096
G1 X100.637 Y133.198 E.01021
G1 X100.932 Y133.331 E.01017
G1 X101.201 Y133.513 E.01017
G1 X101.435 Y133.737 E.01017
G1 X101.628 Y133.998 E.01017
G1 X101.774 Y134.287 E.01017
G1 X101.861 Y134.572 E.00932
G1 X101.91 Y134.917 E.01095
