; generated by PrusaSlicer 2.4.1+win64 on 2022-04-14 at 08:33:55 UTC

; 

; external perimeters extrusion width = 0.45mm
; perimeters extrusion width = 0.45mm
; infill extrusion width = 0.45mm
; solid infill extrusion width = 0.45mm
; top infill extrusion width = 0.40mm
; first layer extrusion width = 0.42mm

M73 P0 R51
M73 Q0 S51
M201 X1000 Y1000 Z200 E5000 ; sets maximum accelerations, mm/sec^2
M203 X200 Y200 Z12 E120 ; sets maximum feedrates, mm / sec
M204 P1250 R1250 T1250 ; sets acceleration (P, T) and retract acceleration (R), mm/sec^2
M205 X8.00 Y8.00 Z0.40 E4.50 ; sets the jerk limits, mm/sec
M205 S0 T0 ; sets the minimum extruding and travel feed rate, mm/sec
M107
;TYPE:Custom
M862.3 P "MK3S" ; printer model check
M862.1 P0.4 ; nozzle diameter check
M115 U3.10.1 ; tell printer latest fw version
G90 ; use absolute coordinates
M83 ; extruder relative mode
M104 S215 ; set extruder temp
M140 S60 ; set bed temp
M190 S60 ; wait for bed temp
M109 S215 ; wait for extruder temp
G28 W ; home all without mesh bed level
G80 ; mesh bed leveling
G1 Z0.2 F720
G1 Y-3 F1000 ; go outside print area
G92 E0
G1 X60 E9 F1000 ; intro line
G1 X100 E12.5 F1000 ; intro line
G92 E0
M221 S95

; Don't change E values below. Excessive value can damage the printer.
M907 E430 ; set extruder motor current
G21 ; set units to millimeters
G90 ; use absolute coordinates
M83 ; use relative distances for extrusion
M900 K0.05 ; Filament gcode LA 1.5
M900 K30 ; Filament gcode LA 1.0
M107
;LAYER_CHANGE
;Z:0.2
;HEIGHT:0.2
;BEFORE_LAYER_CHANGE
G92 E0.0
;0.2


G1 E-.8 F2100
G1 Z.4 F720
;AFTER_LAYER_CHANGE
;0.2
G1 X95.515 Y70.693 F10800
G1 Z.2 F720
G1 E.8 F2100
M204 S800
;TYPE:Skirt/Brim
;WIDTH:0.42
G1 F1200
G1 X96.56 Y69.817 E.04278
G1 X97.5 Y69.623 E.03008
G1 X152.5 Y69.623 E1.72449
G1 X153.807 Y70.015 E.04278
M73 P0 R50
G1 X154.683 Y71.06 E.04278
G1 X154.877 Y72 E.03008
G1 X154.877 Y138 E2.06938
G1 X154.485 Y139.307 E.04278
G1 X153.44 Y140.183 E.04278
G1 X152.5 Y140.377 E.03008
G1 X97.5 Y140.377 E1.72449
G1 X96.193 Y139.985 E.04278
G1 X95.317 Y138.94 E.04278
G1 X95.123 Y138 E.03008
G1 X95.123 Y72 E2.06938
G1 X95.497 Y70.75 E.0409
M204 S1000
; printing object Module_demarrage_Part2.STL id:0 copy 0
;WIPE_START
G1 F8640
G1 X96.56 Y69.817 E-.32671
G1 X97.5 Y69.623 E-.22155
G1 X98.417 Y69.623 E-.21174
;WIPE_END
G1 E-.04 F2100
G1 Z.6 F720
G1 X148.677 Y133.62 F10800
G1 Z.2 F720
G1 E.8 F2100
M204 S800
;TYPE:External perimeter
G1 F1200
G1 X148.93 Y133.416 E.01017
G1 X149.213 Y133.258 E.01017
G1 X149.522 Y133.149 E.0103
G1 X149.977 Y133.09 E.01439
G1 X150.17 Y133.097 E.00604
G1 X150.482 Y133.15 E.00992
G1 X150.788 Y133.259 E.01018
G1 X151.071 Y133.419 E.0102
G1 X151.322 Y133.628 E.01025
G1 X151.53 Y133.882 E.01027
G1 X151.684 Y134.172 E.0103
G1 X151.77 Y134.481 E.01007
G1 X151.805 Y134.781 E.00948
G1 X151.811 Y135.073 E.00914
G1 X151.791 Y135.366 E.00923
G1 X151.737 Y135.674 E.00979
G1 X151.616 Y135.979 E.01028
G1 X151.432 Y136.251 E.01029
G1 X151.202 Y136.483 E.01026
G1 X150.933 Y136.668 E.01023
G1 X150.637 Y136.802 E.01018
G1 X150.323 Y136.884 E.01017
G1 X150 Y136.911 E.01017
G1 X149.677 Y136.884 E.01017
G1 X149.363 Y136.802 E.01017
G1 X149.068 Y136.669 E.01017
G1 X148.799 Y136.487 E.01017
G1 X148.565 Y136.263 E.01017
G1 X148.372 Y136.002 E.01017
G1 X148.226 Y135.713 E.01017
G1 X148.139 Y135.428 E.00932
G1 X148.09 Y135.083 E.01095
G1 X148.104 Y134.757 E.01021
G1 X148.172 Y134.44 E.01017
G1 X148.283 Y134.164 E.00932
G1 X148.462 Y133.864 E.01095
G1 X148.638 Y133.665 E.00833
M204 S1000
G1 X148.599 Y133.305 F10800
;WIPE_START
G1 F8640
G1 X148.93 Y133.416 E-.08855
G1 X149.213 Y133.258 E-.07486
G1 X149.522 Y133.149 E-.07587
G1 X149.977 Y133.09 E-.10594
G1 X150.17 Y133.097 E-.0445
G1 X150.482 Y133.15 E-.07303
G1 X150.788 Y133.259 E-.07496
G1 X151.071 Y133.419 E-.07515
G1 X151.322 Y133.628 E-.07548
G1 X151.519 Y133.868 E-.07167
;WIPE_END
G1 E-.04 F2100
G1 Z.6 F720
G1 X150.556 Y137.213 F10800
G1 Z.2 F720
G1 E.8 F2100
M204 S800
;TYPE:Perimeter
G1 F1200
G1 X150.764 Y137.159 E.00673
G1 X151.119 Y136.997 E.01223
G1 X151.445 Y136.774 E.01238
G1 X151.717 Y136.498 E.01216
G1 X151.715 Y137.213 E.0224
G1 X150.616 Y137.213 E.03446
M204 S1000
;WIPE_START
G1 F8640
G1 X150.764 Y137.159 E-.03633
G1 X151.119 Y136.997 E-.09007
G1 X151.445 Y136.774 E-.09119
G1 X151.717 Y136.498 E-.08953
G1 X151.715 Y137.213 E-.16496
G1 X150.616 Y137.213 E-.25376
;WIPE_END
G1 E-.07416 F2100
G1 Z.6 F720
G1 X101.91 Y135.081 F10800
G1 Z.2 F720
G1 E.8 F2100
M204 S800
;TYPE:External perimeter
G1 F1200
G1 X101.869 Y135.403 E.01017
G1 X101.774 Y135.713 E.01017
G1 X101.628 Y136.002 E.01017
G1 X101.435 Y136.263 E.01017
G1 X101.22 Y136.469 E.00932
G1 X100.934 Y136.668 E.01095
G1 X100.637 Y136.802 E.01021
G1 X100.323 Y136.884 E.01017
G1 X100 Y136.911 E.01017
G1 X99.677 Y136.884 E.01017
G1 X99.363 Y136.802 E.01017
G1 X99.067 Y136.668 E.01018
G1 X98.798 Y136.483 E.01023
G1 X98.568 Y136.251 E.01026
G1 X98.384 Y135.979 E.0103
G1 X98.263 Y135.674 E.01028
G1 X98.209 Y135.366 E.00979
G1 X98.189 Y135.073 E.00923
G1 X98.195 Y134.781 E.00914
G1 X98.23 Y134.482 E.00946
G1 X98.308 Y134.195 E.00932
G1 X98.469 Y133.882 E.01102
G1 X98.678 Y133.628 E.01031
G1 X98.929 Y133.419 E.01025
G1 X99.212 Y133.259 E.0102
G1 X99.522 Y133.149 E.01032
G1 X99.977 Y133.09 E.01439
G1 X100.17 Y133.097 E.00604
G1 X100.482 Y133.15 E.00991
G1 X100.787 Y133.258 E.01017
G1 X101.07 Y133.416 E.01017
G1 X101.323 Y133.62 E.01017
G1 X101.537 Y133.863 E.01017
G1 X101.707 Y134.139 E.01017
G1 X101.818 Y134.415 E.00932
G1 X101.896 Y134.756 E.01095
G1 X101.907 Y135.021 E.00833
M204 S1000
G1 X102.184 Y135.254 F10800
;WIPE_START
G1 F8640
G1 X101.869 Y135.403 E-.08855
G1 X101.774 Y135.713 E-.07486
G1 X101.628 Y136.002 E-.07486
G1 X101.435 Y136.263 E-.07486
G1 X101.22 Y136.469 E-.06864
G1 X100.934 Y136.668 E-.08067
G1 X100.637 Y136.802 E-.0752
G1 X100.323 Y136.884 E-.07486
G1 X100 Y136.911 E-.07486
G1 X99.687 Y136.885 E-.07264
;WIPE_END
G1 E-.04 F2100
G1 Z.6 F720
G1 X99.444 Y137.213 F10800
G1 Z.2 F720
G1 E.8 F2100
M204 S800
;TYPE:Perimeter
G1 F1200
G1 X98.285 Y137.213 E.03634
G1 X98.283 Y136.498 E.0224
G1 X98.555 Y136.774 E.01216
G1 X98.881 Y136.997 E.01238
G1 X99.236 Y137.159 E.01223
G1 X99.386 Y137.198 E.00485
M204 S1000
;WIPE_START
G1 F8640
G1 X98.285 Y137.213 E-.25423
G1 X98.283 Y136.498 E-.16496
G1 X98.555 Y136.774 E-.08953
G1 X98.881 Y136.997 E-.09119
G1 X99.236 Y137.159 E-.09006
G1 X99.386 Y137.198 E-.03572
;WIPE_END
G1 E-.0743 F2100
G1 Z.6 F720
G1 X98.283 Y73.514 F10800
G1 Z.2 F720
G1 E.8 F2100
M204 S800
G1 F1200
G1 X98.285 Y72.787 E.02281
G1 X99.414 Y72.787 E.03539
G1 X99.055 Y72.914 E.01194
G1 X98.714 Y73.107 E.0123
G1 X98.409 Y73.361 E.01245
G1 X98.321 Y73.468 E.00433
M204 S1000
G1 X98.469 Y73.882 F10800
M204 S800
;TYPE:External perimeter
G1 F1200
G1 X98.678 Y73.628 E.01031
G1 X98.929 Y73.419 E.01025
G1 X99.212 Y73.259 E.0102
G1 X99.522 Y73.149 E.01032
G1 X99.977 Y73.09 E.01439
G1 X100.17 Y73.097 E.00604
G1 X100.482 Y73.15 E.00991
G1 X100.787 Y73.258 E.01017
G1 X101.07 Y73.416 E.01017
G1 X101.323 Y73.62 E.01017
G1 X101.537 Y73.863 E.01017
G1 X101.707 Y74.139 E.01017
G1 X101.818 Y74.415 E.00932
G1 X101.896 Y74.756 E.01095
G1 X101.91 Y75.081 E.01021
G1 X101.869 Y75.403 E.01017
G1 X101.774 Y75.713 E.01017
G1 X101.628 Y76.002 E.01017
G1 X101.435 Y76.263 E.01017
G1 X101.22 Y76.469 E.00932
G1 X100.934 Y76.668 E.01095
G1 X100.637 Y76.802 E.01021
G1 X100.323 Y76.884 E.01017
G1 X100 Y76.911 E.01017
G1 X99.677 Y76.884 E.01017
G1 X99.363 Y76.802 E.01017
G1 X99.067 Y76.668 E.01018
G1 X98.798 Y76.483 E.01023
G1 X98.568 Y76.251 E.01026
G1 X98.384 Y75.979 E.0103
G1 X98.263 Y75.674 E.01028
G1 X98.209 Y75.366 E.00979
G1 X98.189 Y75.073 E.00923
G1 X98.195 Y74.781 E.00914
G1 X98.23 Y74.482 E.00946
G1 X98.308 Y74.195 E.00932
G1 X98.442 Y73.936 E.00914
M204 S1000
G1 X98.322 Y73.588 F10800
;WIPE_START
G1 F8640
G1 X98.678 Y73.628 E-.08952
G1 X98.929 Y73.419 E-.07548
G1 X99.212 Y73.259 E-.07514
G1 X99.522 Y73.149 E-.07597
G1 X99.977 Y73.09 E-.10597
G1 X100.17 Y73.097 E-.04449
G1 X100.482 Y73.15 E-.073
G1 X100.787 Y73.258 E-.07486
G1 X101.07 Y73.416 E-.07486
G1 X101.309 Y73.609 E-.0707
;WIPE_END
G1 E-.04 F2100
G1 Z.6 F720
G1 X140.04 Y106.97 F10800
G1 Z.2 F720
G1 E.8 F2100
M204 S800
;TYPE:Perimeter
G1 F1200
G1 X140.261 Y106.708 E.01077
G1 X140.498 Y106.517 E.00952
G1 X140.763 Y106.369 E.00952
G1 X141.06 Y106.264 E.0099
G1 X141.486 Y106.209 E.01345
G1 X141.937 Y106.263 E.01424
G1 X142.237 Y106.369 E.00999
G1 X142.502 Y106.517 E.00952
G1 X142.739 Y106.708 E.00952
G1 X142.939 Y106.936 E.00952
G1 X143.098 Y107.194 E.00952
G1 X143.211 Y107.476 E.00952
G1 X143.275 Y107.773 E.00952
G1 X143.288 Y108.076 E.00952
G1 X143.25 Y108.377 E.00952
G1 X143.161 Y108.667 E.00952
G1 X143.024 Y108.938 E.00952
G1 X142.844 Y109.183 E.00952
G1 X142.624 Y109.393 E.00952
G1 X142.373 Y109.563 E.00952
G1 X142.096 Y109.688 E.00952
G1 X141.802 Y109.764 E.00952
G1 X141.5 Y109.79 E.00952
G1 X141.197 Y109.764 E.00952
G1 X140.904 Y109.688 E.00952
G1 X140.627 Y109.563 E.00952
G1 X140.376 Y109.393 E.00952
G1 X140.156 Y109.183 E.00952
G1 X139.976 Y108.938 E.00952
G1 X139.839 Y108.667 E.00952
G1 X139.75 Y108.377 E.00952
G1 X139.712 Y108.076 E.00952
G1 X139.725 Y107.773 E.00952
G1 X139.789 Y107.476 E.00952
G1 X139.891 Y107.22 E.00865
G1 X140.009 Y107.021 E.00723
M204 S1000
G1 X140.364 Y107.162 F10800
M204 S800
;TYPE:External perimeter
G1 F1200
G1 X140.523 Y106.981 E.00756
G1 X140.71 Y106.831 E.00751
G1 X140.919 Y106.714 E.00751
G1 X141.148 Y106.633 E.00764
G1 X141.488 Y106.589 E.01073
G1 X141.851 Y106.632 E.01146
G1 X142.081 Y106.714 E.00767
G1 X142.29 Y106.831 E.00751
G1 X142.477 Y106.981 E.00751
G1 X142.635 Y107.161 E.00751
G1 X142.76 Y107.365 E.00751
G1 X142.85 Y107.587 E.00751
G1 X142.9 Y107.821 E.00751
G1 X142.91 Y108.06 E.00751
G1 X142.88 Y108.297 E.00751
G1 X142.81 Y108.526 E.00751
G1 X142.702 Y108.74 E.00751
G1 X142.56 Y108.933 E.00751
G1 X142.387 Y109.098 E.00751
G1 X142.188 Y109.232 E.00751
G1 X141.97 Y109.331 E.00751
G1 X141.739 Y109.391 E.00751
G1 X141.5 Y109.411 E.00751
G1 X141.261 Y109.391 E.00751
G1 X141.03 Y109.331 E.00751
G1 X140.812 Y109.232 E.00751
G1 X140.613 Y109.098 E.00751
G1 X140.44 Y108.933 E.00751
G1 X140.298 Y108.74 E.00751
G1 X140.19 Y108.526 E.00751
G1 X140.12 Y108.297 E.00751
G1 X140.09 Y108.06 E.00751
G1 X140.1 Y107.821 E.00751
G1 X140.15 Y107.587 E.00751
G1 X140.231 Y107.387 E.00674
G1 X140.333 Y107.214 E.00633
M204 S1000
G1 X140.268 Y106.941 F10800
;WIPE_START
G1 F8640
G1 X140.523 Y106.981 E-.06935
G1 X140.71 Y106.831 E-.05528
G1 X140.919 Y106.714 E-.05528
G1 X141.148 Y106.633 E-.05629
G1 X141.488 Y106.589 E-.07899
G1 X141.851 Y106.632 E-.08441
G1 X142.081 Y106.714 E-.05651
G1 X142.29 Y106.831 E-.05528
G1 X142.477 Y106.981 E-.05528
G1 X142.635 Y107.161 E-.05528
G1 X142.76 Y107.365 E-.05528
G1 X142.85 Y107.587 E-.05528
G1 X142.875 Y107.703 E-.0275
;WIPE_END
G1 E-.04 F2100
G1 Z.6 F720
G1 X141.486 Y116.209 F10800
G1 Z.2 F720
G1 E.8 F2100
M204 S800
;TYPE:Perimeter
G1 F1200
G1 X141.937 Y116.263 E.01424
G1 X142.237 Y116.369 E.00998
G1 X142.502 Y116.517 E.00952
G1 X142.739 Y116.708 E.00952
G1 X142.939 Y116.936 E.00952
G1 X143.098 Y117.194 E.00952
G1 X143.211 Y117.476 E.00952
G1 X143.275 Y117.773 E.00952
G1 X143.288 Y118.076 E.00952
G1 X143.25 Y118.377 E.00952
G1 X143.161 Y118.667 E.00952
G1 X143.024 Y118.938 E.00952
G1 X142.844 Y119.183 E.00952
G1 X142.624 Y119.393 E.00952
G1 X142.373 Y119.563 E.00952
G1 X142.096 Y119.688 E.00952
G1 X141.802 Y119.764 E.00952
G1 X141.5 Y119.79 E.00952
G1 X141.197 Y119.764 E.00952
G1 X140.904 Y119.688 E.00952
G1 X140.627 Y119.563 E.00952
G1 X140.376 Y119.393 E.00952
G1 X140.156 Y119.183 E.00952
G1 X139.976 Y118.938 E.00952
G1 X139.839 Y118.667 E.00952
G1 X139.75 Y118.377 E.00952
G1 X139.712 Y118.076 E.00952
G1 X139.725 Y117.773 E.00952
G1 X139.789 Y117.476 E.00952
G1 X139.891 Y117.22 E.00865
G1 X140.058 Y116.939 E.01022
G1 X140.261 Y116.708 E.00968
G1 X140.498 Y116.517 E.00952
G1 X140.763 Y116.369 E.00952
G1 X141.06 Y116.264 E.0099
G1 X141.426 Y116.216 E.01157
M204 S1000
G1 X141.488 Y116.589 F10800
M204 S800
;TYPE:External perimeter
G1 F1200
G1 X141.851 Y116.632 E.01146
G1 X142.081 Y116.714 E.00767
G1 X142.29 Y116.831 E.00751
G1 X142.477 Y116.981 E.00751
G1 X142.635 Y117.161 E.00751
G1 X142.76 Y117.365 E.00751
G1 X142.85 Y117.587 E.00751
G1 X142.9 Y117.821 E.00751
G1 X142.91 Y118.06 E.00751
G1 X142.88 Y118.297 E.00751
G1 X142.81 Y118.526 E.00751
G1 X142.702 Y118.74 E.00751
G1 X142.56 Y118.933 E.00751
G1 X142.387 Y119.098 E.00751
G1 X142.188 Y119.232 E.00751
G1 X141.97 Y119.331 E.00751
G1 X141.739 Y119.391 E.00751
G1 X141.5 Y119.411 E.00751
G1 X141.261 Y119.391 E.00751
G1 X141.03 Y119.331 E.00751
G1 X140.812 Y119.232 E.00751
G1 X140.613 Y119.098 E.00751
G1 X140.44 Y118.933 E.00751
G1 X140.298 Y118.74 E.00751
G1 X140.19 Y118.526 E.00751
G1 X140.12 Y118.297 E.00751
G1 X140.09 Y118.06 E.00751
G1 X140.1 Y117.821 E.00751
G1 X140.15 Y117.587 E.00751
G1 X140.231 Y117.387 E.00674
G1 X140.364 Y117.162 E.00821
G1 X140.523 Y116.981 E.00756
G1 X140.71 Y116.831 E.00751
G1 X140.919 Y116.714 E.00751
G1 X141.148 Y116.633 E.00764
G1 X141.428 Y116.596 E.00885
M204 S1000
G1 X141.673 Y116.273 F10800
;WIPE_START
G1 F8640
G1 X141.851 Y116.632 E-.09789
G1 X142.081 Y116.714 E-.0565
G1 X142.29 Y116.831 E-.05528
G1 X142.477 Y116.981 E-.05528
G1 X142.635 Y117.161 E-.05528
G1 X142.76 Y117.365 E-.05528
G1 X142.85 Y117.587 E-.05528
G1 X142.9 Y117.821 E-.05528
G1 X142.91 Y118.06 E-.05528
G1 X142.88 Y118.297 E-.05528
G1 X142.81 Y118.526 E-.05528
G1 X142.702 Y118.74 E-.05528
G1 X142.566 Y118.924 E-.05281
;WIPE_END
G1 E-.04 F2100
G1 Z.6 F720
G1 X148.156 Y133.641 F10800
G1 Z.2 F720
G1 E.8 F2100
M204 S800
;TYPE:Perimeter
G1 F1200
G1 X147.944 Y133.996 E.01297
G1 X147.81 Y134.329 E.01125
G1 X147.729 Y134.709 E.01218
G1 X147.712 Y135.101 E.01231
G1 X147.77 Y135.511 E.01297
G1 X147.875 Y135.854 E.01125
G1 X148.05 Y136.201 E.01218
G1 X148.281 Y136.513 E.01218
G1 X148.561 Y136.782 E.01218
G1 X148.883 Y136.999 E.01218
G1 X149.237 Y137.159 E.01218
G1 X149.444 Y137.213 E.0067
G1 X100.556 Y137.213 E1.53283
G1 X100.763 Y137.159 E.0067
M73 P1 R50
M73 Q1 S51
G1 X101.12 Y136.997 E.01231
G1 X101.46 Y136.761 E.01297
G1 X101.719 Y136.513 E.01125
G1 X101.95 Y136.201 E.01218
G1 X102.125 Y135.854 E.01218
G1 X102.239 Y135.482 E.01218
G1 X102.288 Y135.097 E.01218
G1 X102.271 Y134.705 E.01231
G1 X102.179 Y134.302 E.01297
G1 X102.045 Y133.969 E.01125
G1 X101.841 Y133.638 E.01218
G1 X101.584 Y133.347 E.01218
G1 X101.282 Y133.103 E.01218
G1 X100.943 Y132.913 E.01218
G1 X100.577 Y132.784 E.01218
G1 X100.209 Y132.721 E.01171
G1 X99.96 Y132.712 E.00781
G1 X99.434 Y132.78 E.01662
G1 X99.055 Y132.914 E.0126
G1 X98.714 Y133.107 E.0123
G1 X98.409 Y133.361 E.01245
G1 X98.275 Y133.525 E.00663
G1 X98.287 Y76.993 E1.77253
G1 X98.274 Y76.49 E.01578
M73 Q1 S50
G1 X98.555 Y76.774 E.01254
G1 X98.881 Y76.997 E.01238
G1 X99.236 Y77.159 E.01223
G1 X99.613 Y77.257 E.0122
G1 X100 Y77.29 E.01218
G1 X100.387 Y77.257 E.01218
G1 X100.763 Y77.159 E.01218
G1 X101.12 Y76.997 E.01231
G1 X101.46 Y76.761 E.01297
G1 X101.719 Y76.513 E.01125
G1 X101.95 Y76.201 E.01218
G1 X102.125 Y75.854 E.01218
G1 X102.239 Y75.482 E.01218
G1 X102.288 Y75.097 E.01218
G1 X102.271 Y74.705 E.01231
G1 X102.179 Y74.302 E.01297
G1 X102.045 Y73.969 E.01125
G1 X101.841 Y73.638 E.01218
G1 X101.584 Y73.347 E.01218
G1 X101.282 Y73.103 E.01218
G1 X100.943 Y72.913 E.01218
G1 X100.586 Y72.787 E.01188
G1 X149.414 Y72.787 E1.53098
G1 X149.057 Y72.913 E.01188
G1 X148.718 Y73.103 E.01218
G1 X148.416 Y73.347 E.01218
G1 X148.156 Y73.641 E.01231
G1 X147.944 Y73.996 E.01297
G1 X147.81 Y74.329 E.01125
G1 X147.729 Y74.709 E.01218
G1 X147.712 Y75.097 E.01218
G1 X147.761 Y75.482 E.01218
G1 X147.875 Y75.854 E.01218
G1 X148.052 Y76.204 E.01231
G1 X148.302 Y76.533 E.01297
G1 X148.561 Y76.782 E.01125
G1 X148.883 Y76.999 E.01218
G1 X149.237 Y77.159 E.01218
G1 X149.613 Y77.257 E.01218
G1 X150 Y77.29 E.01218
G1 X150.387 Y77.257 E.01218
G1 X150.764 Y77.159 E.0122
G1 X151.119 Y76.997 E.01223
G1 X151.445 Y76.774 E.01238
G1 X151.726 Y76.49 E.01254
G1 X151.713 Y76.993 E.01578
