; generated by PrusaSlicer 2.4.1+win64 on 2022-04-21 at 14:11:18 UTC

; 

; external perimeters extrusion width = 0.45mm
; perimeters extrusion width = 0.45mm
; infill extrusion width = 0.45mm
; solid infill extrusion width = 0.45mm
; top infill extrusion width = 0.40mm
; first layer extrusion width = 0.42mm

; external perimeters extrusion width = 0.45mm
; perimeters extrusion width = 0.45mm
; infill extrusion width = 0.45mm
; solid infill extrusion width = 0.45mm
; top infill extrusion width = 0.40mm
; first layer extrusion width = 0.42mm

M73 P0 R37
M73 Q0 S38
M201 X1000 Y1000 Z200 E5000 ; sets maximum accelerations, mm/sec^2
M203 X200 Y200 Z12 E120 ; sets maximum feedrates, mm / sec
M204 P1250 R1250 T1250 ; sets acceleration (P, T) and retract acceleration (R), mm/sec^2
M205 X8.00 Y8.00 Z0.40 E4.50 ; sets the jerk limits, mm/sec
M205 S0 T0 ; sets the minimum extruding and travel feed rate, mm/sec
M107
;TYPE:Custom
M862.3 P "MK3S" ; printer model check
M862.1 P0.4 ; nozzle diameter check
M115 U3.10.1 ; tell printer latest fw version
G90 ; use absolute coordinates
M83 ; extruder relative mode
M104 S215 ; set extruder temp
M140 S60 ; set bed temp
M190 S60 ; wait for bed temp
M109 S215 ; wait for extruder temp
G28 W ; home all without mesh bed level
G80 ; mesh bed leveling
G1 Z0.2 F720
G1 Y-3 F1000 ; go outside print area
G92 E0
G1 X60 E9 F1000 ; intro line
G1 X100 E12.5 F1000 ; intro line
G92 E0
M221 S95

; Don't change E values below. Excessive value can damage the printer.
M907 E430 ; set extruder motor current
G21 ; set units to millimeters
G90 ; use absolute coordinates
M83 ; use relative distances for extrusion
M900 K0.05 ; Filament gcode LA 1.5
M900 K30 ; Filament gcode LA 1.0
M107
;LAYER_CHANGE
;Z:0.2
;HEIGHT:0.2
;BEFORE_LAYER_CHANGE
G92 E0.0
;0.2


M73 Q0 S37
G1 E-.8 F2100
G1 Z.4 F720
;AFTER_LAYER_CHANGE
;0.2
G1 X88.015 Y90.693 F10800
G1 Z.2 F720
G1 E.8 F2100
M204 S800
;TYPE:Skirt/Brim
;WIDTH:0.42
G1 F1200
G1 X89.06 Y89.817 E.04278
G1 X90 Y89.623 E.03008
G1 X160 Y89.623 E2.1948
G1 X161.307 Y90.015 E.04278
G1 X162.183 Y91.06 E.04278
G1 X162.377 Y92 E.03008
G1 X162.377 Y118 E.81521
G1 X161.985 Y119.307 E.04278
G1 X160.94 Y120.183 E.04278
G1 X160 Y120.377 E.03008
G1 X90 Y120.377 E2.1948
G1 X88.693 Y119.985 E.04278
G1 X87.817 Y118.94 E.04278
G1 X87.623 Y118 E.03008
G1 X87.623 Y92 E.81521
G1 X87.997 Y90.75 E.0409
M204 S1000
; printing object Support_moteur_bas.STL id:1 copy 0
;WIPE_START
G1 F8640
G1 X89.06 Y89.817 E-.32671
G1 X90 Y89.623 E-.22155
G1 X90.917 Y89.623 E-.21174
;WIPE_END
G1 E-.04 F2100
G1 Z.6 F720
G1 X147.822 Y112.3 F10800
G1 Z.2 F720
G1 E.8 F2100
M204 S800
;TYPE:Perimeter
G1 F1200
G1 X147.955 Y111.969 E.01117
G1 X148.159 Y111.638 E.01218
G1 X148.415 Y111.347 E.01218
G1 X148.718 Y111.103 E.01218
G1 X149.057 Y110.913 E.01218
G1 X149.435 Y110.78 E.01256
G1 X149.962 Y110.712 E.01667
G1 X150.209 Y110.721 E.00775
G1 X150.577 Y110.784 E.01171
G1 X150.943 Y110.913 E.01218
G1 X151.282 Y111.103 E.01218
G1 X151.584 Y111.347 E.01218
G1 X151.841 Y111.638 E.01218
G1 X152.045 Y111.969 E.01218
G1 X152.19 Y112.329 E.01218
G1 X152.271 Y112.709 E.01218
G1 X152.288 Y113.097 E.01218
G1 X152.239 Y113.482 E.01218
G1 X152.125 Y113.854 E.01218
G1 X151.95 Y114.201 E.01218
G1 X151.719 Y114.513 E.01218
G1 X151.439 Y114.782 E.01218
G1 X151.117 Y114.999 E.01218
G1 X150.763 Y115.159 E.01218
G1 X150.387 Y115.257 E.01218
G1 X150 Y115.29 E.01218
G1 X149.613 Y115.257 E.01218
G1 X149.237 Y115.159 E.01218
G1 X148.883 Y114.999 E.01218
G1 X148.561 Y114.782 E.01218
G1 X148.281 Y114.513 E.01218
G1 X148.05 Y114.201 E.01218
G1 X147.875 Y113.854 E.01218
G1 X147.761 Y113.482 E.01218
G1 X147.712 Y113.097 E.01218
G1 X147.729 Y112.709 E.01218
G1 X147.805 Y112.357 E.0113
M204 S1000
G1 X148.172 Y112.44 F10800
M204 S800
;TYPE:External perimeter
G1 F1200
G1 X148.293 Y112.139 E.01017
G1 X148.463 Y111.863 E.01017
G1 X148.677 Y111.62 E.01016
G1 X148.93 Y111.416 E.01017
G1 X149.213 Y111.258 E.01017
G1 X149.522 Y111.149 E.0103
G1 X149.979 Y111.09 E.01444
G1 X150.17 Y111.097 E.00599
G1 X150.482 Y111.15 E.00991
G1 X150.787 Y111.258 E.01017
G1 X151.07 Y111.416 E.01017
G1 X151.323 Y111.62 E.01016
G1 X151.537 Y111.863 E.01017
G1 X151.707 Y112.139 E.01017
G1 X151.828 Y112.44 E.01017
G1 X151.896 Y112.757 E.01016
G1 X151.91 Y113.081 E.01017
G1 X151.869 Y113.403 E.01017
G1 X151.774 Y113.713 E.01017
G1 X151.628 Y114.002 E.01016
G1 X151.435 Y114.263 E.01017
G1 X151.201 Y114.487 E.01017
G1 X150.932 Y114.669 E.01016
G1 X150.637 Y114.802 E.01017
G1 X150.323 Y114.884 E.01016
G1 X150 Y114.911 E.01017
G1 X149.677 Y114.884 E.01017
G1 X149.363 Y114.802 E.01016
G1 X149.068 Y114.669 E.01017
G1 X148.799 Y114.487 E.01017
G1 X148.565 Y114.263 E.01017
G1 X148.372 Y114.002 E.01017
G1 X148.226 Y113.713 E.01016
G1 X148.131 Y113.403 E.01017
G1 X148.09 Y113.081 E.01017
G1 X148.104 Y112.757 E.01017
G1 X148.16 Y112.499 E.00828
M204 S1000
G1 X147.951 Y112.203 F10800
;WIPE_START
G1 F8640
G1 X148.293 Y112.139 E-.08855
G1 X148.463 Y111.863 E-.07486
G1 X148.677 Y111.62 E-.07486
G1 X148.93 Y111.416 E-.07486
G1 X149.213 Y111.258 E-.07487
G1 X149.522 Y111.149 E-.07588
G1 X149.979 Y111.09 E-.10635
G1 X150.17 Y111.097 E-.04409
G1 X150.482 Y111.15 E-.07298
G1 X150.779 Y111.255 E-.0727
;WIPE_END
G1 E-.04 F2100
G1 Z.6 F720
G1 X102.284 Y113.129 F10800
G1 Z.2 F720
G1 E.8 F2100
M204 S800
;TYPE:Perimeter
G1 F1200
G1 X102.239 Y113.482 E.01117
G1 X102.125 Y113.854 E.01218
G1 X101.95 Y114.201 E.01218
G1 X101.719 Y114.513 E.01218
G1 X101.439 Y114.782 E.01218
G1 X101.117 Y114.999 E.01218
G1 X100.763 Y115.159 E.01218
G1 X100.387 Y115.257 E.01218
G1 X100 Y115.29 E.01218
G1 X99.613 Y115.257 E.01218
G1 X99.237 Y115.159 E.01218
G1 X98.883 Y114.999 E.01218
G1 X98.561 Y114.782 E.01218
G1 X98.281 Y114.513 E.01218
G1 X98.05 Y114.201 E.01218
G1 X97.875 Y113.854 E.01218
G1 X97.761 Y113.482 E.01218
G1 X97.712 Y113.097 E.01218
G1 X97.729 Y112.709 E.01218
G1 X97.81 Y112.329 E.01218
G1 X97.955 Y111.969 E.01218
G1 X98.159 Y111.638 E.01218
G1 X98.415 Y111.347 E.01218
G1 X98.718 Y111.103 E.01218
G1 X99.057 Y110.913 E.01218
G1 X99.435 Y110.78 E.01256
G1 X99.962 Y110.712 E.01667
G1 X100.209 Y110.721 E.00775
G1 X100.577 Y110.784 E.01171
G1 X100.943 Y110.913 E.01218
G1 X101.282 Y111.103 E.01218
G1 X101.584 Y111.347 E.01218
G1 X101.841 Y111.638 E.01218
G1 X102.045 Y111.969 E.01218
G1 X102.19 Y112.329 E.01218
G1 X102.271 Y112.709 E.01218
G1 X102.287 Y113.069 E.0113
M204 S1000
G1 X101.91 Y113.081 F10800
M204 S800
;TYPE:External perimeter
G1 F1200
G1 X101.869 Y113.403 E.01017
G1 X101.774 Y113.713 E.01017
G1 X101.628 Y114.002 E.01016
G1 X101.435 Y114.263 E.01017
G1 X101.201 Y114.487 E.01017
G1 X100.932 Y114.669 E.01016
G1 X100.637 Y114.802 E.01017
G1 X100.323 Y114.884 E.01016
G1 X100 Y114.911 E.01017
G1 X99.677 Y114.884 E.01017
G1 X99.363 Y114.802 E.01016
G1 X99.068 Y114.669 E.01017
G1 X98.799 Y114.487 E.01017
G1 X98.565 Y114.263 E.01017
G1 X98.372 Y114.002 E.01017
G1 X98.226 Y113.713 E.01016
G1 X98.131 Y113.403 E.01017
G1 X98.09 Y113.081 E.01017
G1 X98.104 Y112.757 E.01017
G1 X98.172 Y112.44 E.01016
G1 X98.293 Y112.139 E.01017
G1 X98.463 Y111.863 E.01017
G1 X98.677 Y111.62 E.01016
G1 X98.93 Y111.416 E.01017
G1 X99.213 Y111.258 E.01017
G1 X99.522 Y111.149 E.0103
G1 X99.979 Y111.09 E.01444
G1 X100.17 Y111.097 E.00599
G1 X100.482 Y111.15 E.00991
G1 X100.787 Y111.258 E.01016
G1 X101.07 Y111.416 E.01017
G1 X101.323 Y111.62 E.01016
G1 X101.537 Y111.863 E.01017
G1 X101.707 Y112.139 E.01017
G1 X101.828 Y112.44 E.01017
G1 X101.896 Y112.757 E.01016
G1 X101.907 Y113.021 E.00828
M204 S1000
G1 X102.183 Y113.255 F10800
;WIPE_START
G1 F8640
G1 X101.869 Y113.403 E-.08855
G1 X101.774 Y113.713 E-.07486
G1 X101.628 Y114.002 E-.07485
G1 X101.435 Y114.263 E-.07486
G1 X101.201 Y114.487 E-.07486
G1 X100.932 Y114.669 E-.07486
G1 X100.637 Y114.802 E-.07487
G1 X100.323 Y114.884 E-.07486
G1 X100 Y114.911 E-.07487
G1 X99.687 Y114.885 E-.07256
;WIPE_END
G1 E-.04 F2100
G1 Z.6 F720
G1 X90.787 Y117.213 F10800
G1 Z.2 F720
M73 Q1 S37
G1 E.8 F2100
M204 S800
;TYPE:Perimeter
G1 F1200
G1 X90.787 Y108.787 E.26419
G1 X159.213 Y108.787 E2.14544
M73 P1 R37
G1 X159.213 Y117.213 E.26419
G1 X90.847 Y117.213 E2.14356
M204 S1000
G1 X90.41 Y117.59 F10800
M204 S800
;TYPE:External perimeter
G1 F1200
G1 X90.41 Y108.41 E.28783
G1 X159.59 Y108.41 E2.16909
G1 X159.59 Y117.59 E.28783
M73 P1 R36
G1 X90.47 Y117.59 E2.16721
M204 S1000
G1 X90.595 Y117.235 F10800
;WIPE_START
G1 F8640
G1 X90.448 Y114.299 E-.76
;WIPE_END
G1 E-.04 F2100
G1 Z.6 F720
G1 X158.335 Y108.9 F10800
G1 Z.2 F720
G1 E.8 F2100
M204 S800
;TYPE:Solid infill
;WIDTH:0.421072
G1 F1200
G1 X158.93 Y109.495 E.02645
G1 X158.93 Y110.03 E.01682
G1 X157.97 Y109.07 E.04269
G1 X157.435 Y109.07 E.01682
G1 X158.93 Y110.565 E.06647
G1 X158.93 Y111.099 E.01682
G1 X156.901 Y109.07 E.09025
G1 X156.366 Y109.07 E.01682
G1 X158.93 Y111.634 E.11403
G1 X158.93 Y112.169 E.01682
G1 X155.831 Y109.07 E.13781
G1 X155.296 Y109.07 E.01682
G1 X158.93 Y112.704 E.16159
G1 X158.93 Y113.239 E.01682
G1 X154.761 Y109.07 E.18537
G1 X154.227 Y109.07 E.01682
G1 X158.93 Y113.773 E.20915
G1 X158.93 Y114.308 E.01682
G1 X153.692 Y109.07 E.23293
G1 X153.157 Y109.07 E.01682
G1 X158.93 Y114.843 E.25671
G1 X158.93 Y115.378 E.01682
G1 X152.622 Y109.07 E.2805
G1 X152.087 Y109.07 E.01682
G1 X158.93 Y115.913 E.30428
G1 X158.93 Y116.447 E.01682
G1 X151.553 Y109.07 E.32806
G1 X151.018 Y109.07 E.01682
G1 X158.878 Y116.93 E.34953
G1 X158.343 Y116.93 E.01682
G1 X150.483 Y109.07 E.34953
G1 X149.948 Y109.07 E.01682
G1 X157.809 Y116.93 E.34953
G1 X157.274 Y116.93 E.01682
M73 Q2 S37
G1 X152.374 Y112.031 E.21787
G1 X152.298 Y111.841 E.00641
M73 P2 R36
G1 X152.069 Y111.47 E.01373
G1 X151.781 Y111.142 E.01373
G1 X151.441 Y110.868 E.01373
G1 X151.06 Y110.655 E.01373
G1 X150.965 Y110.621 E.00318
G1 X149.244 Y108.9 E.07652
M204 S1000
;WIPE_START
G1 F8640
G1 X150.965 Y110.621 E-.56193
G1 X151.06 Y110.655 E-.02337
G1 X151.441 Y110.868 E-.1008
G1 X151.69 Y111.069 E-.0739
;WIPE_END
G1 E-.04 F2100
G1 Z.6 F720
G1 X150.458 Y110.649 F10800
G1 Z.2 F720
G1 E.8 F2100
M204 S800
G1 F1200
G1 X148.879 Y109.07 E.07021
G1 X148.344 Y109.07 E.01682
G1 X149.731 Y110.457 E.06166
G1 X149.369 Y110.503 E.01148
G1 X149.275 Y110.536 E.00311
G1 X147.809 Y109.07 E.0652
G1 X147.274 Y109.07 E.01682
G1 X148.888 Y110.684 E.07176
G1 X148.547 Y110.877 E.01234
G1 X146.74 Y109.07 E.08037
G1 X146.205 Y109.07 E.01682
G1 X148.251 Y111.116 E.09099
G1 X147.996 Y111.396 E.0119
G1 X145.67 Y109.07 E.10342
G1 X145.135 Y109.07 E.01682
G1 X147.78 Y111.715 E.1176
G1 X147.702 Y111.841 E.00468
G1 X147.607 Y112.077 E.00798
G1 X144.6 Y109.07 E.13371
G1 X144.066 Y109.07 E.01682
G1 X147.486 Y112.491 E.15211
G1 X147.447 Y112.673 E.00587
G1 X147.434 Y112.973 E.00945
G1 X143.531 Y109.07 E.17358
G1 X142.996 Y109.07 E.01682
G1 X147.747 Y113.82 E.21125
M204 S1000
;WIPE_START
G1 F8640
G1 X145.419 Y111.493 E-.76
;WIPE_END
G1 E-.04 F2100
G1 Z.6 F720
G1 X152.351 Y112.542 F10800
G1 Z.2 F720
G1 E.8 F2100
M204 S800
G1 F1200
G1 X156.739 Y116.93 E.19512
G1 X156.204 Y116.93 E.01682
G1 X152.55 Y113.276 E.16249
G1 X152.516 Y113.542 E.00844
G1 X152.461 Y113.722 E.0059
G1 X155.669 Y116.93 E.14267
G1 X155.135 Y116.93 E.01682
G1 X152.313 Y114.109 E.12547
G1 X152.192 Y114.349 E.00848
G1 X152.118 Y114.449 E.00388
G1 X154.6 Y116.93 E.11035
G1 X154.065 Y116.93 E.01682
G1 X151.883 Y114.748 E.09705
G1 X151.608 Y115.008 E.01189
G1 X153.53 Y116.93 E.08546
G1 X152.996 Y116.93 E.01682
G1 X151.289 Y115.224 E.07587
G1 X150.926 Y115.396 E.01263
G1 X152.461 Y116.93 E.06824
G1 X151.926 Y116.93 E.01682
G1 X150.512 Y115.517 E.06286
G1 X150.032 Y115.571 E.0152
G1 X151.391 Y116.93 E.06044
G1 X150.856 Y116.93 E.01682
G1 X149.187 Y115.26 E.07425
M204 S1000
;WIPE_START
G1 F8640
G1 X150.856 Y116.93 E-.54523
G1 X151.391 Y116.93 E-.12348
G1 X151.112 Y116.651 E-.09129
;WIPE_END
G1 E-.04 F2100
G1 Z.6 F720
G1 X150.491 Y117.1 F10800
G1 Z.2 F720
G1 E.8 F2100
M204 S800
G1 F1200
G1 X142.461 Y109.07 E.35707
G1 X141.927 Y109.07 E.01682
G1 X149.787 Y116.93 E.34953
G1 X149.252 Y116.93 E.01682
G1 X141.392 Y109.07 E.34953
G1 X140.857 Y109.07 E.01682
G1 X148.717 Y116.93 E.34953
G1 X148.182 Y116.93 E.01682
G1 X140.322 Y109.07 E.34953
G1 X139.787 Y109.07 E.01682
G1 X147.648 Y116.93 E.34953
G1 X147.113 Y116.93 E.01682
G1 X139.253 Y109.07 E.34953
G1 X138.718 Y109.07 E.01682
G1 X146.578 Y116.93 E.34953
G1 X146.043 Y116.93 E.01682
G1 X138.183 Y109.07 E.34953
G1 X137.648 Y109.07 E.01682
G1 X145.508 Y116.93 E.34953
G1 X144.974 Y116.93 E.01682
G1 X137.113 Y109.07 E.34953
G1 X136.579 Y109.07 E.01682
G1 X144.439 Y116.93 E.34953
G1 X143.904 Y116.93 E.01682
G1 X136.044 Y109.07 E.34953
G1 X135.509 Y109.07 E.01682
G1 X143.369 Y116.93 E.34953
G1 X142.835 Y116.93 E.01682
G1 X134.974 Y109.07 E.34953
G1 X134.44 Y109.07 E.01682
M73 Q2 S36
G1 X142.3 Y116.93 E.34953
G1 X141.765 Y116.93 E.01682
G1 X133.905 Y109.07 E.34953
G1 X133.37 Y109.07 E.01682
G1 X141.23 Y116.93 E.34953
G1 X140.695 Y116.93 E.01682
G1 X132.835 Y109.07 E.34953
G1 X132.3 Y109.07 E.01682
G1 X140.161 Y116.93 E.34953
G1 X139.626 Y116.93 E.01682
G1 X131.766 Y109.07 E.34953
G1 X131.231 Y109.07 E.01682
G1 X139.091 Y116.93 E.34953
G1 X138.556 Y116.93 E.01682
G1 X130.696 Y109.07 E.34953
G1 X130.161 Y109.07 E.01682
G1 X138.021 Y116.93 E.34953
G1 X137.487 Y116.93 E.01682
G1 X129.626 Y109.07 E.34953
G1 X129.092 Y109.07 E.01682
G1 X136.952 Y116.93 E.34953
G1 X136.417 Y116.93 E.01682
G1 X128.557 Y109.07 E.34953
G1 X128.022 Y109.07 E.01682
M73 P3 R36
M73 Q3 S36
G1 X135.882 Y116.93 E.34953
G1 X135.348 Y116.93 E.01682
G1 X127.487 Y109.07 E.34953
G1 X126.952 Y109.07 E.01682
G1 X134.813 Y116.93 E.34953
G1 X134.278 Y116.93 E.01682
G1 X126.418 Y109.07 E.34953
G1 X125.883 Y109.07 E.01682
G1 X133.743 Y116.93 E.34953
G1 X133.208 Y116.93 E.01682
G1 X125.348 Y109.07 E.34953
G1 X124.813 Y109.07 E.01682
G1 X132.674 Y116.93 E.34953
G1 X132.139 Y116.93 E.01682
G1 X124.279 Y109.07 E.34953
G1 X123.744 Y109.07 E.01682
G1 X131.604 Y116.93 E.34953
G1 X131.069 Y116.93 E.01682
G1 X123.209 Y109.07 E.34953
G1 X122.674 Y109.07 E.01682
G1 X130.534 Y116.93 E.34953
G1 X130 Y116.93 E.01682
G1 X122.139 Y109.07 E.34953
G1 X121.605 Y109.07 E.01682
G1 X129.465 Y116.93 E.34953
G1 X128.93 Y116.93 E.01682
G1 X121.07 Y109.07 E.34953
G1 X120.535 Y109.07 E.01682
G1 X128.395 Y116.93 E.34953
G1 X127.86 Y116.93 E.01682
G1 X120 Y109.07 E.34953
G1 X119.465 Y109.07 E.01682
G1 X127.326 Y116.93 E.34953
G1 X126.791 Y116.93 E.01682
G1 X118.931 Y109.07 E.34953
G1 X118.396 Y109.07 E.01682
G1 X126.256 Y116.93 E.34953
G1 X125.721 Y116.93 E.01682
G1 X117.861 Y109.07 E.34953
G1 X117.326 Y109.07 E.01682
G1 X125.187 Y116.93 E.34953
G1 X124.652 Y116.93 E.01682
G1 X116.792 Y109.07 E.34953
G1 X116.257 Y109.07 E.01682
G1 X124.117 Y116.93 E.34953
G1 X123.582 Y116.93 E.01682
G1 X115.722 Y109.07 E.34953
G1 X115.187 Y109.07 E.01682
G1 X123.047 Y116.93 E.34953
G1 X122.513 Y116.93 E.01682
G1 X114.652 Y109.07 E.34953
G1 X114.118 Y109.07 E.01682
G1 X121.978 Y116.93 E.34953
G1 X121.443 Y116.93 E.01682
G1 X113.583 Y109.07 E.34953
G1 X113.048 Y109.07 E.01682
G1 X120.908 Y116.93 E.34953
G1 X120.373 Y116.93 E.01682
G1 X112.513 Y109.07 E.34953
G1 X111.978 Y109.07 E.01682
G1 X119.839 Y116.93 E.34953
G1 X119.304 Y116.93 E.01682
G1 X111.444 Y109.07 E.34953
G1 X110.909 Y109.07 E.01682
G1 X118.769 Y116.93 E.34953
G1 X118.234 Y116.93 E.01682
G1 X110.374 Y109.07 E.34953
G1 X109.839 Y109.07 E.01682
G1 X117.7 Y116.93 E.34953
G1 X117.165 Y116.93 E.01682
G1 X109.304 Y109.07 E.34953
G1 X108.77 Y109.07 E.01682
G1 X116.63 Y116.93 E.34953
G1 X116.095 Y116.93 E.01682
G1 X108.235 Y109.07 E.34953
G1 X107.7 Y109.07 E.01682
M73 P4 R36
M73 Q4 S36
G1 X115.56 Y116.93 E.34953
G1 X115.026 Y116.93 E.01682
G1 X107.165 Y109.07 E.34953
G1 X106.631 Y109.07 E.01682
G1 X114.491 Y116.93 E.34953
G1 X113.956 Y116.93 E.01682
G1 X106.096 Y109.07 E.34953
G1 X105.561 Y109.07 E.01682
M73 P4 R35
G1 X113.421 Y116.93 E.34953
G1 X112.886 Y116.93 E.01682
G1 X105.026 Y109.07 E.34953
G1 X104.491 Y109.07 E.01682
G1 X112.352 Y116.93 E.34953
G1 X111.817 Y116.93 E.01682
G1 X103.957 Y109.07 E.34953
G1 X103.422 Y109.07 E.01682
G1 X111.282 Y116.93 E.34953
